X: 191
T: Qia Suantai
%%abc-version 2.0
%%abcx-abcm2ps-target-version 5.9.1 (29 Sep 2008)
%%abc-creator hum2abc beta
%%abcx-conversion-date 2013/10/02 07:52:29
%%abc-edited-by Helmut Schaffrath
%%humdrum-veritas 3397105539
%%humdrum-veritas-data 2200253649
%%continueall 1
%%barnumbers 0
L: 1/8
M: 2/4
K: E
g> g f e [I:setbarnb 1]| 
f g f g | 
e d c e | 
B4 | 
B> c e e | 
B c G F | 
E E/ F/ G F | 
E4 |]  



